static/assets/head_icons_png/man/bizi/1010540.svg

<svg xmlns="http://www.w3.org/2000/svg" width="5" height="10"><g><radialGradient id="a" gradientUnits="userSpaceOnUse" gradientTransform="matrix(.00873 0 0 .00873 1.9 7.65)" spreadMethod="pad" cx="0" cy="0" r="819.2" fx="0" fy="0"><stop offset=".306" stop-color="#fedec1"/><stop offset="1" stop-color="#ffecd9" stop-opacity=".282"/></radialGradient><path d="M3 2.85q-.05 2.1.15 3.8Q3.3 8.3 1.8 8.3q-.65 0-1.05-.5Q.4 7.4.1 7.6l.85-6.55v-.2q0-.4 1.1-.85.65.05.7.5.3.2.25 2.35" fill="url(#a)"/><path d="M2.8 7.95l.45.05v.05l-.6.15-.2.05-.1.05-.25.3-.15.05h-.2l-.25-.1-.05-.05.2.05.4-.05.25-.25.3-.25.2-.05M.8 8l.15.1.45.4v.05l-.05-.05-.15-.1-.1-.05-.2-.05q-.25.05-.55-.2v-.05L.8 8" fill="#823909"/><radialGradient id="b" gradientUnits="userSpaceOnUse" gradientTransform="matrix(.00174 .00008 -.00005 .00209 1.85 9.6)" spreadMethod="pad" cx="0" cy="0" r="819.2" fx="0" fy="0"><stop offset="0" stop-color="#f39b61"/><stop offset="1" stop-color="#f8be98"/></radialGradient><path d="M3.6 6.1l-.65-.05-.1-.7.05.85-.1-.5Q2.7 4.5 2.75 3l.1-1.9.1-.15q.35 1 .5 2.85l.1 1.7v.2l.05.4" fill="url(#b)"/><radialGradient id="c" gradientUnits="userSpaceOnUse" gradientTransform="matrix(.00066 .00008 -.00002 .00307 1.8 3.4)" spreadMethod="pad" cx="0" cy="0" r="819.2" fx="0" fy="0"><stop offset=".314" stop-color="#fff" stop-opacity=".431"/><stop offset="1" stop-color="#fff" stop-opacity="0"/></radialGradient><path d="M1.8.95l.3.75.1 1.75-.15 1.75-.1.35v.05l-.2.3-.2-.35V5.5l-.1-.35-.1-1.8q0-1.05.15-1.75.1-.7.3-.65" fill="url(#c)"/><radialGradient id="d" gradientUnits="userSpaceOnUse" gradientTransform="matrix(.00174 .00008 -.00005 .00209 1.85 9.25)" spreadMethod="pad" cx="0" cy="0" r="819.2" fx="0" fy="0"><stop offset="0" stop-color="#f39b61"/><stop offset="1" stop-color="#f8be98"/></radialGradient><path d="M2.95 6.05l.65.05-.05-.4.2.8.1.8.05.1-.2.6-.55.35-.45.2-.5.4-.75.1-1.15-.7-.1-.1H.15q-.3-.4.1-.9V7.3H.3q.3-.15.7.2.4.3.75.3l.8-.35q.5-.35.5-.85l-.1-.55M2.6 8l-.3.25-.25.25-.4.05-.2-.05.05.05.25.1h.2l.15-.05.25-.3.1-.05.2-.05.6-.15V8l-.45-.05-.2.05m-2.25.05v.05q.3.25.55.2l.2.05.1.05.15.1.05.05V8.5l-.45-.4L.8 8l-.45.05" fill="url(#d)"/><radialGradient id="e" gradientUnits="userSpaceOnUse" gradientTransform="matrix(.00052 .00005 -.00003 .00061 1.65 6.75)" spreadMethod="pad" cx="0" cy="0" r="819.2" fx="0" fy="0"><stop offset=".314" stop-color="#fff" stop-opacity=".431"/><stop offset="1" stop-color="#fff" stop-opacity="0"/></radialGradient><path d="M1.95 6.4l.1.35-.15.35-.3.1-.25-.15-.15-.35.15-.35.3-.1.3.15" fill="url(#e)"/><radialGradient id="f" gradientUnits="userSpaceOnUse" gradientTransform="matrix(.00136 -.00023 .00035 .00287 3.3 3.7)" spreadMethod="pad" cx="0" cy="0" r="819.2" fx="0" fy="0"><stop offset=".337" stop-color="#f9c29f"/><stop offset="1" stop-color="#fedec1" stop-opacity="0"/></radialGradient><path d="M4.7 4.25q.05.45-.75.8-.25.05-.45.65l-.05-.05L3.3 3.9l.15-2.3v.3-.35q.45 1.6.95 1.95l.25.15.05.6" fill="url(#f)"/></g></svg>

<?xml version="1.0" encoding="utf-8"?>
<svg version="1.1" id="Layer_1"
xmlns="http://www.w3.org/2000/svg"
xmlns:xlink="http://www.w3.org/1999/xlink"
xmlns:author="http://www.sothink.com"
width="5px" height="10px"
xml:space="preserve">
<g id="454" transform="matrix(1, 0, 0, 1, 0, 0)">
<radialGradient
id="RadialGradID_3996" gradientUnits="userSpaceOnUse" gradientTransform="matrix(0.00872803, 0, 0, 0.00872803, 1.9, 7.65)" spreadMethod ="pad" cx="0" cy="0" r="819.2" fx="0" fy="0" >
<stop  offset="0.305882"  style="stop-color:#FEDEC1;stop-opacity:1" />
<stop  offset="1"  style="stop-color:#FFECD9;stop-opacity:0.282353" />
</radialGradient>
<path style="fill:url(#RadialGradID_3996) " d="M3,2.85Q2.95 4.95 3.15 6.65Q3.3 8.3 1.8 8.3Q1.15 8.3 0.75 7.8Q0.4 7.4 0.1 7.6L0.95 1.05L0.95 0.85Q0.95 0.45 2.05 0Q2.7 0.05 2.75 0.5Q3.05 0.7 3 2.85" />
<path style="fill:#823909;fill-opacity:1" d="M2.8,7.95L3.25 8L3.25 8.05L2.65 8.2L2.45 8.25L2.35 8.3L2.1 8.6L1.95 8.65L1.75 8.65L1.5 8.55L1.45 8.5L1.65 8.55L2.05 8.5L2.3 8.25L2.6 8L2.8 7.95M0.8,8L0.95 8.1L1.4 8.5L1.4 8.55L1.35 8.5L1.2 8.4L1.1 8.35L0.9 8.3Q0.65 8.35 0.35 8.1L0.35 8.05L0.8 8" />
<radialGradient
id="RadialGradID_3997" gradientUnits="userSpaceOnUse" gradientTransform="matrix(0.0017395, 7.62939e-005, -4.57764e-005, 0.00209045, 1.85, 9.6)" spreadMethod ="pad" cx="0" cy="0" r="819.2" fx="0" fy="0" >
<stop  offset="0"  style="stop-color:#F39B61;stop-opacity:1" />
<stop  offset="1"  style="stop-color:#F8BE98;stop-opacity:1" />
</radialGradient>
<path style="fill:url(#RadialGradID_3997) " d="M3.6,6.1L2.95 6.05L2.85 5.35L2.9 6.2L2.8 5.7Q2.7 4.5 2.75 3L2.85 1.1L2.95 0.95Q3.3 1.95 3.45 3.8L3.55 5.5L3.55 5.6L3.55 5.7L3.6 6.1" />
<radialGradient
id="RadialGradID_3998" gradientUnits="userSpaceOnUse" gradientTransform="matrix(0.000656128, 7.62939e-005, -1.52588e-005, 0.00306702, 1.8, 3.4)" spreadMethod ="pad" cx="0" cy="0" r="819.2" fx="0" fy="0" >
<stop  offset="0.313725"  style="stop-color:#FFFFFF;stop-opacity:0.431373" />
<stop  offset="1"  style="stop-color:#FFFFFF;stop-opacity:0" />
</radialGradient>
<path style="fill:url(#RadialGradID_3998) " d="M1.8,0.95L2.1 1.7L2.2 3.45L2.05 5.2L1.95 5.55L1.95 5.6L1.75 5.9L1.55 5.55L1.55 5.5L1.45 5.15L1.35 3.35Q1.35 2.3 1.5 1.6Q1.6 0.9 1.8 0.95" />
<radialGradient
id="RadialGradID_3999" gradientUnits="userSpaceOnUse" gradientTransform="matrix(0.0017395, 7.62939e-005, -4.57764e-005, 0.00209045, 1.85, 9.25)" spreadMethod ="pad" cx="0" cy="0" r="819.2" fx="0" fy="0" >
<stop  offset="0"  style="stop-color:#F39B61;stop-opacity:1" />
<stop  offset="1"  style="stop-color:#F8BE98;stop-opacity:1" />
</radialGradient>
<path style="fill:url(#RadialGradID_3999) " d="M2.95,6.05L3.6 6.1L3.55 5.7L3.75 6.5L3.85 7.3L3.9 7.4L3.7 8L3.15 8.35L2.7 8.55L2.2 8.95L1.45 9.05L0.3 8.35L0.2 8.25L0.15 8.25Q-0.15 7.85 0.25 7.35L0.25 7.3L0.3 7.3Q0.6 7.15 1 7.5Q1.4 7.8 1.75 7.8L2.55 7.45Q3.05 7.1 3.05 6.6L2.95 6.05M2.6,8L2.3 8.25L2.05 8.5L1.65 8.55L1.45 8.5L1.5 8.55L1.75 8.65L1.95 8.65L2.1 8.6L2.35 8.3L2.45 8.25L2.65 8.2L3.25 8.05L3.25 8L2.8 7.95L2.6 8M0.35,8.05L0.35 8.1Q0.65 8.35 0.9 8.3L1.1 8.35L1.2 8.4L1.35 8.5L1.4 8.55L1.4 8.5L0.95 8.1L0.8 8L0.35 8.05" />
<radialGradient
id="RadialGradID_4000" gradientUnits="userSpaceOnUse" gradientTransform="matrix(0.000518799, 4.57764e-005, -3.05176e-005, 0.000610352, 1.65, 6.75)" spreadMethod ="pad" cx="0" cy="0" r="819.2" fx="0" fy="0" >
<stop  offset="0.313725"  style="stop-color:#FFFFFF;stop-opacity:0.431373" />
<stop  offset="1"  style="stop-color:#FFFFFF;stop-opacity:0" />
</radialGradient>
<path style="fill:url(#RadialGradID_4000) " d="M1.95,6.4L2.05 6.75L1.9 7.1L1.6 7.2L1.35 7.05L1.2 6.7L1.35 6.35L1.65 6.25L1.95 6.4" />
<radialGradient
id="RadialGradID_4001" gradientUnits="userSpaceOnUse" gradientTransform="matrix(0.00135803, -0.000228882, 0.000350952, 0.00286865, 3.3, 3.7)" spreadMethod ="pad" cx="0" cy="0" r="819.2" fx="0" fy="0" >
<stop  offset="0.337255"  style="stop-color:#F9C29F;stop-opacity:1" />
<stop  offset="1"  style="stop-color:#FEDEC1;stop-opacity:0" />
</radialGradient>
<path style="fill:url(#RadialGradID_4001) " d="M4.7,4.25Q4.75 4.7 3.95 5.05Q3.7 5.1 3.5 5.7L3.45 5.65L3.3 3.9L3.45 1.6L3.45 1.9L3.45 1.55Q3.9 3.15 4.4 3.5L4.65 3.65L4.7 4.25" />
</g>
</svg>
